X:163
T:Jack's Jig
M:6/8
L:1/8
K:G:
C:Trish Barker, Jan 2004
B/2c/2:"G"d2 B "C"efg|"G"d2 c BAG|"C"cBA "G"B2 G|"D"A2 G FED|!
"G"d2 B "C"efg|"G"d2 c B2 d|"A7"efg "D"afd|"G"g3-g2:||!
f|"G"gdB "Am"ecA|"G"dBG "D"AFD|"C"C2 D E2 F|"G"G2 A B2 c|!
"G"d2 B "C"efg|"G"d2 c B2 d|"C"efg "D"afd|"G"g3-g2:||
% <A name="D1X164">
